assets/img/icons/instagram.svg

<svg width="32" height="32" viewBox="0 0 32 32" xmlns="http://www.w3.org/2000/svg">
    <title>Instagram</title>
    <path d="M28 0h-24c-2.208 0-4 1.792-4 4v24c0 2.208 1.792 4 4 4h24c2.208 0 4-1.792 4-4v-24c0-2.208-1.792-4-4-4zm-12 12c3.684 0 4 4 4 4s.118 4-4 4c-4.116 0-4-4-4-4s.316-4 4-4zm12 14c0 1.105-.894 2-2 2h-20c-1.106 0-2-.895-2-2v-10c0-1.106.894-2 2-2h2.284c-.168.643-.284 1.305-.284 2 0 4.418 3.582 8 8 8s8-3.582 8-8c0-.695-.118-1.357-.284-2h2.284c1.106 0 2 .894 2 2v10zm0-18c0 1.103-.894 2-2 2h-2c-1.104 0-2-.897-2-2v-2c0-1.104.896-2 2-2h2c1.106 0 2 .896 2 2v2z" />
</svg>

<?xml version="1.0" encoding="UTF-8" standalone="no"?>
<svg width="32px" height="32px" viewBox="0 0 32 32" version="1.1" xmlns="http://www.w3.org/2000/svg" xmlns:xlink="http://www.w3.org/1999/xlink" xmlns:sketch="http://www.bohemiancoding.com/sketch/ns">
    <!-- Generator: Sketch 3.3.2 (12043) - http://www.bohemiancoding.com/sketch -->
    <title>Artboard 1</title>
    <desc>Created with Sketch.</desc>
    <defs></defs>
    <path d="M28,0 L4,0 C1.792,0 0,1.792 0,4 L0,28 C0,30.208 1.792,32 4,32 L28,32 C30.208,32 32,30.208 32,28 L32,4 C32,1.792 30.208,0 28,0 L28,0 Z M16,12 C19.684,12 20,16 20,16 C20,16 20.118,20 16,20 C11.884,20 12,16 12,16 C12,16 12.316,12 16,12 L16,12 Z M28,26 C28,27.105 27.106,28 26,28 L6,28 C4.894,28 4,27.105 4,26 L4,16 C4,14.894 4.894,14 6,14 L8.284,14 C8.116,14.643 8,15.305 8,16 C8,20.418 11.582,24 16,24 C20.418,24 24,20.418 24,16 C24,15.305 23.882,14.643 23.716,14 L26,14 C27.106,14 28,14.894 28,16 L28,26 L28,26 Z M28,8 C28,9.103 27.106,10 26,10 L24,10 C22.896,10 22,9.103 22,8 L22,6 C22,4.896 22.896,4 24,4 L26,4 C27.106,4 28,4.896 28,6 L28,8 L28,8 Z" id="instagram" sketch:type="MSShapeGroup"></path>
</svg>
